X:1
T:WiS 153 O Hear My People Hear Me Well
T:Worship in Song
%%score ( 1 2 ) ( 3 4 5 ) ( 6 7 ) ( 8 9 )
L:1/8
Q:1/4=120
M:3/4
K:C
V:1 treble nm="Grand Piano, WiS 153 O Hear My People Hear Me Well"
V:2 treble 
V:3 treble nm="Grand Piano"
V:4 treble 
V:5 treble 
V:6 bass nm="Grand Piano"
V:7 bass 
V:8 bass nm="Grand Piano"
V:9 bass 
V:1
 E2 E4 | G2 c4 | G2 A4 | c2 G4 | G2 z2 E2 | F2 G4 | A2 z2 F2 | E2 D4 | D2 E4 | G2 c4 | G2 A4 | %11
w: |||||||||||
 c2 G4 | G2 z2 E2 | F2 G4 | F2 E4 | D2[Q:1/4=60] C4 |[Q:1/4=120] z2 E2 E2- | E2 G2 c2- | %18
w: |||||||
 c2 G2 A2- | A2 c2 G2- | G2 G2 z2 | E2 F2 G2- | G2 A2 z2 | F2 E2 D2- | D2 D2 E2- | E2 G2 c2- | %26
w: ||||||||
 c2 G2 A2- | A2 c2 G2- | G2 G2 z2 | E2 F2 G2- | G2 F2 E2- | E2 D2 C2- | %32
w: ||||||
[Q:1/4=60] C2 z2[Q:1/4=120] E2 | E4 G2 | c4 G2 | A4 c2 | G4 G2 | z2 E2 F2 | G4 A2 | .G4 z2 | %40
w: ||||||||
 D4 D2 | E4 G2 | c4 G2 | A4 c2 | G4 G2 | z2 E2 F2 | G4 F2 | E4 D2 | C4[Q:1/4=60] z2 |] %49
w: * O~source~of~peace,~lead~us~to~heal.|||||||||
V:2
 x6 | x6 | x6 | x6 | z2 .D4 | x6 | z2 .G4 | x6 | x6 | x6 | x6 | x6 | z2 .D4 | x6 | x6 | x6 | x6 | %17
 x6 | x6 | x6 | z2 z2 D2- | D2 z2 z2 | z2 z2 G2- | G2 z2 z2 | x6 | x6 | x6 | x6 | z2 z2 D2- | %29
 D2 z2 z2 | x6 | x6 | x6 | x6 | x6 | x6 | x6 | .D4 z2 | x6 | z2 F2 E2 | x6 | x6 | x6 | x6 | x6 | %45
 .D4 z2 | x6 | x6 | x6 |] %49
V:3
 C2 C4 | C2 E4 | z2 G4 | F2 z2 E2 | E2 z2 C2 | D2 E4 | z2 .E4 | C2 B,4 | B,2 C4 | C2 E4 | z2 G4 | %11
 F2 z2 E2 | E2 z2 C2 | D2 E4 | D2 C4 | B,2 C4 | z6 | z6 | z6 | F2 z2 F2- | F2 z2 z2 | z6 | z6 | %23
 z6[K:bass] | z6 | z6[K:treble] | z6 | F2 z2 F2- | F2 z2 z2 | z6 | z6 | z6 | z6 | C4 C2 | E4 G2 | %35
 G4 z2 | .F4 z2 | z2 C2 D2 | E4 E2 | .E4 z2 | B,4 B,2 | C4 C2 | E4 G2 | G4 z2 | .F4 z2 | z2 C2 D2 | %46
 E4 D2 | C4 B,2 | C4 z2 |] %49
V:4
 x6 | x6 | G2 z2 z E | z2 .F4 | z2 .B,4 | x6 | E2 z2 D2 | x6 | x6 | x6 | G2 z2 z E | z2 .F4 | %12
 z2 .B,4 | x6 | x6 | x6 | x6 | x6 | z2 z2 G2- | G z z2 z2 | z2 z2 B,2- | B,2 z2 z2 | z2 z2 E2- | %23
 E2 z2[K:bass] z2 | x6 | x2[K:treble] x4 | z2 z2 G2- | G z z2 z2 | z2 z2 B,2- | B,2 z2 z2 | x6 | %31
 x6 | x6 | x6 | x6 | z2 z E F2 | z2 E2 E2 | .B,4 z2 | x6 | z2 D2 C2 | x6 | x6 | x6 | z2 z E F2 | %44
 z2 E2 E2 | .B,4 z2 | x6 | x6 | x6 |] %49
V:5
 x6 | x6 | z2 z2 F2 | x6 | x6 | x6 | x6 | x6 | x6 | x6 | z2 z2 F2 | x6 | x6 | x6 | x6 | x6 | %16
 z2 C2 C2- | C2 C2 E2- | E2 G2 z2 | z E F2 z2 | E2 E2 z2 | C2 D2 E2- | E2 E2 z2 | %23
 D2 C2[K:bass] B,2- | B,2 B,2 C2- | C2[K:treble] C2 E2- | E2 G2 z2 | z E F2 z2 | E2 E2 z2 | %29
 C2 D2 E2- | E2 D2 C2- | C2 B,2 C2- | C2 z2 C2 | x6 | x6 | z2 F2 z2 | x6 | x6 | x6 | x6 | x6 | x6 | %42
 x6 | z2 F2 z2 | x6 | x6 | x6 | x6 | x6 |] %49
V:6
 E,2 G,4 | E,2 A,4 | G,2 F,4 | F,2 G,4 | C2 G,4 | G,2 _B,4 | A,2 A,4 | A,2 B,4 | G,2 G,4 | %9
 E,2 A,4 | G,2 F,4 | F,2 G,4 | G,2 G,4 | z2 ._B,4 | A,2 z2 ^F,2 | F,2 E,4 | z6 | z6 | z6 | z6 | %20
 z6 | z6 | z6 | z6 | z6 | z6 | z6 | z6 | z6 | z2 z2 _B,2- | B,2 z2 G,2- | G,2 z2 z2 | z6 | %33
 G,4 E,2 | A,4 G,2 | F,4 F,2 | G,4 C2 | G,4 G,2 | _B,4 A,2 | A,4 A,2 | B,4 G,2 | G,4 E,2 | %42
 A,4 G,2 | F,4 F,2 | G,4 G,2 | G,4 A,2 | ._B,4 z2 | .G,4 z2 | E,4 z2 |] %49
V:7
 x6 | x6 | x6 | x6 | x6 | x6 | x6 | x6 | x6 | x6 | x6 | x6 | x6 | A,2 z2 A,2 | z2 .G,4 | x6 | %16
 z2 E,2 G,2- | G,2 E,2 A,2- | A,2 G,2 F,2- | F,2 F,2 G,2- | G,2 C2 G,2- | G,2 G,2 _B,2- | %22
 B,2 A,2 A,2- | A,2 A,2 B,2- | B,2 G,2 G,2- | G,2 E,2 A,2- | A,2 G,2 F,2- | F,2 F,2 G,2- | %28
 G,2 G,2 G,2- | G,2 A,2 z2 | A,2 A,2 z2 | ^F,2 =F,2 E,2- | E,2 z2 E,2 | x6 | x6 | x6 | x6 | x6 | %38
 x6 | x6 | x6 | x6 | x6 | x6 | x6 | x6 | z2 A,2 A,2 | z2 ^F,2 =F,2 | x6 |] %49
V:8
 C,2 C,4 | C,2 A,,4 | z2 .F,4 | A,,2 C,4 | z2 .F,4 | D,2 D,4 | ^C,2 D,4 | E,F, G,4 | G,,2 C,4 | %9
 C,2 A,,4 | z2 .F,4 | A,,2 C,4 | z2 .F,4 | D,2 z2 D,2 | F,,2 G,,4 | G,,2 C,4 | z6 | z6 | %18
 z2 z2 F,2- | F,2 z2 z2 | z2 z2 F,2- | F,2 z2 z2 | z6 | z6 | z6 | z6 | z2 z2 F,2- | F,2 z2 z2 | %28
 z2 z2 F,2- | F,2 z2 ^C,2- | C,2 z2 z2 | z6 | z6 | C,4 C,2 | A,,4 E,2 | .F,4 z2 | C,4 C,2 | %37
 .F,4 z2 | D,4 ^C,2 | D,4 E,F, | G,4 G,,2 | C,4 C,2 | A,,4 E,2 | .F,4 z2 | C,4 C,2 | .F,4 z2 | %46
 .^C,4 z2 | G,,4 G,,2 | C,4 z2 |] %49
V:9
 x6 | x6 | E,2 z2 F,,2 | x6 | C,2 z2 E,2 | x6 | x6 | x6 | x6 | x6 | E,2 z2 F,,2 | x6 | C,2 z2 E,2 | %13
 z2 .^C,4 | x6 | x6 | z2 C,2 C,2- | C,2 C,2 A,,2- | A,,2 E,2 z2 | F,,2 A,,2 C,2- | C,2 C,2 z2 | %21
 E,2 D,2 D,2- | D,2 ^C,2 D,2- | D,2 E,F, G,2- | G,2 G,,2 C,2- | C,2 C,2 A,,2- | A,,2 E,2 z2 | %27
 F,,2 A,,2 C,2- | C,2 C,2 z2 | E,2 D,2 z2 | D,2 F,,2 G,,2- | G,,2 G,,2 C,2- | C,2 z2 C,2 | x6 | %34
 x6 | z2 F,,2 A,,2 | x6 | z2 E,2 D,2 | x6 | x6 | x6 | x6 | x6 | z2 F,,2 A,,2 | x6 | z2 E,2 D,2 | %46
 z2 D,2 F,,2 | x6 | x6 |] %49

